X:1
T:An Irish Lullaby
L:1/8
Q:1/4=57
M:2/4
I:linebreak $
K:Eb
V:1 treble 
V:1
 D | DE FG/A/ | BG AF | GA F2 | GA F2 | DE FG/A/ | BG AF | DF E2 | DF E2 | DE FG/A/ | BG AF |$ %11
 GB/A/ F2 | GB/A/{G} F>E | DE FG/A/ | BA/G/ AF | DF E2 | DF G2 | DE FG/A/ | BB AF | GA F2 | %20
 GA F2 |$ DE FG/A/ | BB AF | DF E2 | DF E | %25
